tools/download-figma-icons/icons/outlined-medium/emob-stand.svg

<svg width="24" height="24" viewBox="0 0 24 24" fill="none" xmlns="http://www.w3.org/2000/svg">
<path fill-rule="evenodd" clip-rule="evenodd" d="M6 1.5C5.586 1.5 5.25 1.836 5.25 2.25V21.7463C5.25 22.1618 5.58825 22.5 6.00375 22.5H17.9963C18.4118 22.5 18.75 22.1618 18.75 21.7463V2.25C18.75 1.836 18.414 1.5 18 1.5C17.586 1.5 17.25 1.836 17.25 2.25V8.253C17.25 9.90525 15.9052 11.25 14.253 11.25H9.747C8.09475 11.25 6.75 9.90525 6.75 8.253V2.25C6.75 1.836 6.414 1.5 6 1.5ZM17.9963 24H6.00375C4.761 24 3.75 22.989 3.75 21.7463V2.25C3.75 1.0095 4.7595 0 6 0C7.2405 0 8.25 1.0095 8.25 2.25V8.253C8.25 9.078 8.922 9.75 9.747 9.75H14.253C15.078 9.75 15.75 9.078 15.75 8.253V2.25C15.75 1.0095 16.7595 0 18 0C19.2405 0 20.25 1.0095 20.25 2.25V21.7463C20.25 22.989 19.239 24 17.9963 24Z" fill="black"/>
</svg>

<svg width="24" height="24" viewBox="0 0 24 24" fill="none" xmlns="http://www.w3.org/2000/svg"><path fill-rule="evenodd" clip-rule="evenodd" d="M6 1.5a.75.75 0 0 0-.75.75v19.496c0 .416.338.754.754.754h11.992a.755.755 0 0 0 .754-.754V2.25a.75.75 0 0 0-1.5 0v6.003a3 3 0 0 1-2.997 2.997H9.747A3 3 0 0 1 6.75 8.253V2.25A.75.75 0 0 0 6 1.5ZM17.996 24H6.004a2.256 2.256 0 0 1-2.254-2.254V2.25C3.75 1.01 4.76 0 6 0s2.25 1.01 2.25 2.25v6.003A1.5 1.5 0 0 0 9.747 9.75h4.506a1.5 1.5 0 0 0 1.497-1.497V2.25C15.75 1.01 16.76 0 18 0s2.25 1.01 2.25 2.25v19.496A2.256 2.256 0 0 1 17.996 24Z" fill="currentColor"/></svg>
